vendor/shopware/storefront/Resources/app/storefront/dist/assets/icon/solid/circle-medium.svg

<svg xmlns="http://www.w3.org/2000/svg" width="16" height="16" viewBox="0 0 16 16">
  <path fill="#758CA3" fill-rule="evenodd" d="M8,14 C4.6862915,14 2,11.3137085 2,8 C2,4.6862915 4.6862915,2 8,2 C11.3137085,2 14,4.6862915 14,8 C14,11.3137085 11.3137085,14 8,14 Z M8,12 C10.209139,12 12,10.209139 12,8 C12,5.790861 10.209139,4 8,4 C5.790861,4 4,5.790861 4,8 C4,10.209139 5.790861,12 8,12 Z"/>
</svg>

<svg xmlns="http://www.w3.org/2000/svg" width="16" height="16" viewBox="0 0 16 16"><path fill="#758CA3" fill-rule="evenodd" d="M8 14c-3.3137 0-6-2.6863-6-6s2.6863-6 6-6 6 2.6863 6 6-2.6863 6-6 6zm0-2c2.2091 0 4-1.7909 4-4 0-2.2091-1.7909-4-4-4-2.2091 0-4 1.7909-4 4 0 2.2091 1.7909 4 4 4z"/></svg>
